assets/Customs/Flat/customs_flat.svg

<svg width="32" height="32" viewBox="0 0 32 32" fill="none" xmlns="http://www.w3.org/2000/svg">
<path d="M2 6C2 3.79086 3.79086 2 6 2H26C28.2091 2 30 3.79086 30 6V26C30 28.2091 28.2091 30 26 30H6C3.79086 30 2 28.2091 2 26V6Z" fill="#00A6ED"/>
<path d="M17.7997 5.9469C17.4303 5.9469 17.1884 6.33372 17.3502 6.66585L18 7.99998H16.5C16.2239 7.99998 16 8.22384 16 8.49998C16 8.77612 16.2239 8.99998 16.5 8.99998H24.5C24.7761 8.99998 25 8.77612 25 8.49998V6.4469C25 6.17076 24.7761 5.9469 24.5 5.9469H17.7997Z" fill="white"/>
<path d="M18.5 9.99998C18.2239 9.99998 18 10.2238 18 10.5V11C18 11.3939 18.0905 11.7841 18.2664 12.148C18.4423 12.512 18.7001 12.8427 19.0251 13.1213C19.3501 13.3999 19.736 13.6209 20.1606 13.7716C20.5852 13.9224 21.0404 14 21.5 14C21.9596 14 22.4148 13.9224 22.8394 13.7716C23.264 13.6209 23.6499 13.3999 23.9749 13.1213C24.2999 12.8427 24.5577 12.512 24.7336 12.148C24.9095 11.7841 25 11.3939 25 11V10.5C25 10.2238 24.7761 9.99998 24.5 9.99998H18.5Z" fill="white"/>
<path d="M25.0576 15.8646C25.388 15.5545 25.1685 15 24.7154 15L17.5 15C17.4827 15 17.4656 15.0009 17.4488 15.0026C17.1259 14.9941 16.798 15.0894 16.5182 15.2964L10.2915 19.9046C9.6256 20.3974 9.48527 21.3367 9.97808 22.0026C10.4709 22.6685 11.4102 22.8089 12.0761 22.3161L17 18.6721V22.7223C17 22.8908 17.1366 23.0274 17.3051 23.0274C17.3826 23.0274 17.4573 22.9978 17.5138 22.9447L25.0576 15.8646Z" fill="white"/>
<path d="M17 25.3167C17 25.1803 17.0558 25.0497 17.1544 24.9554L25.1544 17.3032C25.4724 16.999 26 17.2245 26 17.6646V25.5C26 25.7762 25.7761 26 25.5 26H17.5C17.2239 26 17 25.7762 17 25.5V25.3167Z" fill="white"/>
<path d="M6 18C6 17.4477 6.44772 17 7 17H7.875C7.94404 17 8 17.056 8 17.125V24H7C6.44772 24 6 23.5523 6 23V18Z" fill="white"/>
<path d="M9 26C8.44772 26 8 25.5523 8 25L8 24.125C8 24.056 8.05596 24 8.125 24H14.875C14.944 24 15 24.056 15 24.125V25C15 25.5523 14.5523 26 14 26H9Z" fill="white"/>
</svg>

<svg xmlns="http://www.w3.org/2000/svg" width="32" height="32" fill="none"><path fill="#00A6ED" d="M2 6a4 4 0 0 1 4-4h20a4 4 0 0 1 4 4v20a4 4 0 0 1-4 4H6a4 4 0 0 1-4-4V6Z"/><path fill="#fff" d="M17.8 5.947a.5.5 0 0 0-.45.719L18 8h-1.5a.5.5 0 0 0 0 1h8a.5.5 0 0 0 .5-.5V6.447a.5.5 0 0 0-.5-.5h-6.7ZM18.5 10a.5.5 0 0 0-.5.5v.5c0 .394.09.784.266 1.148.176.364.434.695.76.973.324.279.71.5 1.135.65.424.151.88.229 1.339.229.46 0 .915-.078 1.34-.228.424-.151.81-.372 1.135-.65.325-.28.583-.61.759-.974.175-.364.266-.754.266-1.148v-.5a.5.5 0 0 0-.5-.5h-6ZM25.058 15.865a.5.5 0 0 0-.343-.865H17.5c-.017 0-.034 0-.051.003a1.493 1.493 0 0 0-.93.293l-6.227 4.609a1.5 1.5 0 0 0 1.784 2.411L17 18.672v4.05a.305.305 0 0 0 .514.223l7.544-7.08ZM17 25.317a.5.5 0 0 1 .154-.362l8-7.652a.5.5 0 0 1 .846.362V25.5a.5.5 0 0 1-.5.5h-8a.5.5 0 0 1-.5-.5v-.183ZM6 18a1 1 0 0 1 1-1h.875c.069 0 .125.056.125.125V24H7a1 1 0 0 1-1-1v-5ZM9 26a1 1 0 0 1-1-1v-.875c0-.069.056-.125.125-.125h6.75c.069 0 .125.056.125.125V25a1 1 0 0 1-1 1H9Z"/></svg>
